X: 1
T: Just a Tune
C:\251 George Meikle
B: George Meikle "Originally Mine" p.16
R: jig
Z: 2010 John Chambers <jc:trillian.mit.edu>
N: [jc] Is the first G7 chord in the last staff correct?
M: 6/8
L: 1/8
K: C
G |:\
"C"CEG "E/C"AGE | "F"FAc "D7"dcA | "G7"GBd fed | "C"edc "G7"A2G |
"C"CEG "C7"AGE | "F"FAc "D7"dcA | "G7"GBd fed |1 "C"ec"F"[cF] "C"[c2E2]E :|2 "C"ec"F"[cF] "C"[c2E2]e ||
|: "C"gec Gce | "G7"fdB GBd | "C"ecG EGc | "Dm"dec "G7"BAG |
[1 "C"gec Gce | "G7"fdB GBd | "C"ede "G7"fdB | "C"dc"F"c "C"c2e :|
[2 "C"CEG "G7"AGE | "F"FAc "D7"dcA | "G7"GBd fed | "C"ec"F"c "C"c3 |]
%%begintext align
I was asked to compose a tune for one of the dances  in  the  Crystal  Collection  Book  which  was
published by the RSCDS Leicester Branch. Deviser, Shirley Campbell called the dance "Just a Dance",
so what better tune title could I use than "Just a Tune".  The tune was  recorded  by  the  Lothian
Scottish Dance Band for a cassette to complement the book.
%%endtext

%%sep 1 1 500
%%sep 1 1 500

